svg/furkot/icomoon/feed.svg

<svg viewBox="0 0 512 512" xmlns="http://www.w3.org/2000/svg"><path d="m426.672 0h-341.328c-46.936 0-85.344 38.408-85.344 85.344v341.312c0 46.968 38.408 85.344 85.344 85.344h341.328c46.936 0 85.328-38.376 85.328-85.344v-341.312c0-46.936-38.392-85.344-85.328-85.344zm-287.2 415.624c-23.984 0-43.472-19.344-43.472-43.312 0-23.84 19.488-43.408 43.472-43.408 24.08 0 43.528 19.568 43.528 43.408 0 23.968-19.448 43.312-43.528 43.312zm109.264.376c0-40.904-15.904-79.408-44.728-108.224-28.856-28.872-67.184-44.816-107.952-44.816v-62.592c118.824 0 215.56 96.72 215.56 215.624h-62.88zm111.08 0c0-145.528-118.328-263.968-263.688-263.968v-62.624c180 0 326.472 146.56 326.472 326.6h-62.784z"/></svg>

<svg xmlns="http://www.w3.org/2000/svg" viewBox="0 0 512 512"><path d="M426.672 0H85.344C38.408 0 0 38.408 0 85.344V426.656C0 473.624 38.408 512 85.344 512H426.672C473.608 512 512 473.624 512 426.656V85.344C512 38.408 473.608 0 426.672 0ZM139.472 415.624C115.488 415.624 96 396.28 96 372.312 96 348.472 115.488 328.904 139.472 328.904 163.552 328.904 183 348.472 183 372.312 183 396.28 163.552 415.624 139.472 415.624ZM248.736 416C248.736 375.096 232.832 336.592 204.008 307.776 175.152 278.904 136.824 262.96 96.056 262.96V200.368C214.88 200.368 311.616 297.088 311.616 415.992L248.736 415.992ZM359.816 416C359.816 270.472 241.488 152.032 96.128 152.032V89.408C276.128 89.408 422.6 235.968 422.6 416.008L359.816 416.008Z"/></svg>
